X: 34295
T: Resilience, The
R: jig
M: 6/8
K: Dmajor
"D"A,DF Afe|dcB AGF|"G"B,DG Bge|edc BAG|
"D"A,DF Afe|dcB AGF|"G"GBG "D"FAF|"A"gec "D"d3:|
|:"D"fdd "G"gfe|"D"fdd bag|"D"fdd "G"Bdd|"D"Adf gfd|"A"eAB cde|
"D"fdd "G"gfe|"D"fdd "Bm"Bdd|"D"Add "F#m"F3|"G"GBG "D"FAF|"A"gec "D"d3:|

